X:0701
T:"Doctor O'Neill" (doublejig)    0701
C:after Mr.Cronin
B:O'Neill's Music Of Ireland (The 1850) Lyon & Healy, Chicago, 1903 edition
Z:FROM O'NEILL'S TO NOTEWORTHY, FROM NOTEWORTHY TO ABC, MIDI AND .TXT BY VINCE
BRENNAN June 2003 (HTTP://WWW.SOSYOURMOM.COM)
I:abc2nwc
M:6/8
L:1/8
K:D
"vb"A|d3AFD|E2F G2A|BGB Bcd|AGF EFA|
d3AFD|E2F G2A|BGB Bcd|AFD D2:|
|:A|d3ceA|dfe dcB|AFA Bcd|AGF EFA|
d3ceA|dfe dcB|AFA Bcd|AFD D2:|
|:g|{g}fef afd|dfd fed|gbg faf|gee e2g|
{g}fef afd|dfd fed|gbg faf|gee e2:|
|:g|{g}fdf ece|{e}dcB AFA|AFd AFd|AGF E2g|
{g}fdf ece|dcB AFA|AFA Bcd|AFD D2:|
|:G|FAF GBG|FAG FED|FAF GBG|AGF E2G|
FAF GBG|FAG FED|BGB Bcd|AFD D2:|
